assets/images/font-names/pt-serif.svg

<svg width="53.265" height="11.46"><path d="M23.07 8.04l.615 2.205a1.338 1.338 0 00.228.181 1.832 1.832 0 00.237.127q.285.127.855.127a3.203 3.203 0 00.659-.066 2.828 2.828 0 00.241-.061 2.274 2.274 0 00.481-.207 1.954 1.954 0 00.247-.168q.307-.248.487-.6a1.645 1.645 0 00.166-.558 2.062 2.062 0 00.014-.245 1.615 1.615 0 00-.078-.512 1.369 1.369 0 00-.29-.493q-.367-.405-.914-.72a14.503 14.503 0 00-.723-.388 17.326 17.326 0 00-.47-.227q-.645-.3-1.192-.712-.548-.413-.915-.99a2.251 2.251 0 01-.293-.72q-.075-.334-.075-.728a3.017 3.017 0 01.062-.623 2.41 2.41 0 01.163-.502q.225-.495.638-.84a2.826 2.826 0 01.707-.429 3.41 3.41 0 01.275-.103 3.7 3.7 0 01.745-.159A4.752 4.752 0 0125.47.6a10.24 10.24 0 01.928.04 7.91 7.91 0 01.745.103 7.795 7.795 0 01.441.095q.452.113.751.257 0 .205-.024.464a7.597 7.597 0 01-.014.129 20.345 20.345 0 01-.077.607 22.539 22.539 0 01-.013.09 22.839 22.839 0 01-.105.655 20.944 20.944 0 01-.007.043q-.052.29-.103.519a7.738 7.738 0 01-.017.073h-.39l-.6-2.055a1.927 1.927 0 00-.243-.088q-.122-.035-.263-.062a3.907 3.907 0 00-.176-.03 5.795 5.795 0 00-.593-.054 6.837 6.837 0 00-.285-.006 2.225 2.225 0 00-.532.06 1.564 1.564 0 00-.698.368 1.4 1.4 0 00-.424.768A2.087 2.087 0 0023.73 3a1.701 1.701 0 00.079.53 1.436 1.436 0 00.288.505q.368.42.923.75a15.037 15.037 0 00.879.482 17.257 17.257 0 00.314.156q.637.307 1.192.712.555.405.923.96a2.143 2.143 0 01.305.749q.062.293.062.631a3.191 3.191 0 01-.092.778 2.746 2.746 0 01-.156.452q-.247.555-.712.945-.465.39-1.14.6a4.532 4.532 0 01-.804.168 6.06 6.06 0 01-.726.042 6.815 6.815 0 01-.896-.056 5.124 5.124 0 01-.799-.169 6.518 6.518 0 01-.348-.114q-.481-.175-.717-.366.015-.255.053-.615a22.677 22.677 0 01.077-.647 24.963 24.963 0 01.013-.095 26.208 26.208 0 01.108-.72 24.336 24.336 0 01.004-.023q.046-.276.092-.49a6.526 6.526 0 01.028-.125h.39zm-7.815 2.805v.435H11.04v-.435q.33-.12.668-.21a6.44 6.44 0 01.442-.101 7.732 7.732 0 01.285-.049V1.56H10.14l-.795 2.145H8.97q-.042-.28-.071-.632a13.49 13.49 0 01-.004-.05q-.03-.383-.052-.78-.023-.398-.038-.78a21.535 21.535 0 01-.01-.319Q8.791.997 8.79.866a12.719 12.719 0 010-.086h8.715a13.774 13.774 0 010 .005q0 .293-.015.658a24.422 24.422 0 010 .012q-.015.375-.037.773l-.045.78q-.023.382-.068.697h-.39l-.78-2.145h-2.295v8.925q.39.075.728.15.337.075.652.21zm37.68-8.955h-.375L51.9.6a3.557 3.557 0 00-.308.013q-.163.014-.303.044a1.846 1.846 0 00-.131.033q-.308.09-.51.345-.149.187-.241.495a2.754 2.754 0 00-.06.24q-.065.323-.087.78a10.261 10.261 0 00-.01.48v.75h1.725v.75H50.25v6.015a5.685 5.685 0 011.016.209 4.951 4.951 0 01.424.151v.375h-3.78v-.375q.465-.27.99-.36V4.53h-1.14v-.39q.525-.33 1.14-.495V3.12a6.356 6.356 0 01.029-.627q.031-.309.094-.572a2.984 2.984 0 01.102-.338 2.751 2.751 0 01.231-.483 2.037 2.037 0 01.399-.477q.405-.353.953-.488a4.658 4.658 0 01.791-.122A5.537 5.537 0 0151.885 0q.103 0 .233.009a5.313 5.313 0 01.082.006 11.526 11.526 0 01.278.027 13.044 13.044 0 01.097.011 4.25 4.25 0 01.33.05 3.856 3.856 0 01.045.01 3.503 3.503 0 01.149.034q.09.023.166.048a10.065 10.065 0 01-.071.592 8.246 8.246 0 01-.057.331q-.082.427-.202.772zM2.67 7.17v3.315a5.235 5.235 0 01.582.097 4.594 4.594 0 01.183.046 7.452 7.452 0 01.494.151 6.402 6.402 0 01.181.066v.435H0v-.435q.3-.15.615-.225a17.379 17.379 0 01.596-.131 15.789 15.789 0 01.019-.004V1.59a4.918 4.918 0 01-.453-.1 4.208 4.208 0 01-.192-.057q-.3-.098-.585-.218V.78h1.35a13.87 13.87 0 00.708-.019A17.746 17.746 0 002.655.72 16.503 16.503 0 013.679.664 14.359 14.359 0 014.005.66q.735 0 1.44.158a3.719 3.719 0 01.895.319 3.32 3.32 0 01.357.213 2.785 2.785 0 01.842.92 3.264 3.264 0 01.043.078 2.629 2.629 0 01.252.693q.069.311.082.672a4.872 4.872 0 01.004.187q0 .885-.345 1.515-.345.63-.922 1.035a3.914 3.914 0 01-1.132.542 4.5 4.5 0 01-.181.051q-.735.187-1.515.187h-.232a7.54 7.54 0 01-.206-.003 9.21 9.21 0 01-.132-.004 7.288 7.288 0 01-.262-.016A6.422 6.422 0 012.91 7.2q-.159-.014-.234-.029a.709.709 0 01-.006-.001zm33.285 2.82l.21.24a1.33 1.33 0 01-.184.285 1.787 1.787 0 01-.191.195 2.647 2.647 0 01-.464.326 3.029 3.029 0 01-.121.064q-.33.165-.72.263-.39.097-.795.097a4.802 4.802 0 01-.784-.061 3.566 3.566 0 01-.776-.216 3.016 3.016 0 01-.902-.566 2.841 2.841 0 01-.223-.229 3.381 3.381 0 01-.57-.933 4.036 4.036 0 01-.113-.305q-.232-.72-.232-1.62a6.668 6.668 0 01.086-1.111q.191-1.123.799-1.814a2.881 2.881 0 011.63-.921 4.327 4.327 0 01.875-.084q.525 0 1.035.143.51.142.908.472a2.22 2.22 0 01.457.527 2.854 2.854 0 01.187.351q.21.463.242 1.114a4.919 4.919 0 01.006.243q0 .255-.022.518-.023.262-.083.562h-4.68a4.457 4.457 0 00.073.818 3.856 3.856 0 00.085.36 2.968 2.968 0 00.258.628 2.555 2.555 0 00.214.324q.315.405.795.638a2.272 2.272 0 00.624.193 3.076 3.076 0 00.501.039 3.928 3.928 0 00.964-.123 4.41 4.41 0 00.101-.027q.354-.098.591-.235a1.314 1.314 0 00.219-.155zm6.72-5.085H40.68a.803.803 0 00-.099.065q-.103.079-.231.213a3.807 3.807 0 00-.083.09 1.65 1.65 0 00-.174.239q-.077.125-.148.281a3.969 3.969 0 00-.12.297v4.455q.3.03.6.113a2.671 2.671 0 01.45.17 3.108 3.108 0 01.15.077v.375h-3.54v-.375a3.213 3.213 0 01.261-.13 2.357 2.357 0 01.249-.095q.24-.075.48-.135V4.65l-.99-.12v-.39q.48-.21.99-.337.51-.128.975-.203h.375v1.59h.06a2.398 2.398 0 01.187-.337 3.095 3.095 0 01.196-.263q.247-.3.57-.54.322-.24.705-.367a1.815 1.815 0 01.577-.095 1.898 1.898 0 01.21.012q.105.195.188.428a9.079 9.079 0 01.119.361 10.15 10.15 0 01.038.126v.39zm4.05 6v.375h-3.33v-.375q.225-.12.465-.202a6.808 6.808 0 01.301-.096 8.511 8.511 0 01.224-.062V4.65l-.99-.12v-.39a7.084 7.084 0 01.634-.226 8.411 8.411 0 01.311-.089q.51-.135 1.02-.225h.375v6.945q.3.075.54.158.24.082.45.202zM2.67 1.515v4.86a.386.386 0 00.053.017q.057.013.138.019a1.462 1.462 0 00.027.002 6.811 6.811 0 01.212.014 7.943 7.943 0 01.088.008 3.244 3.244 0 00.307.015h.24q.525 0 .99-.142.465-.143.818-.458a2.186 2.186 0 00.463-.593 2.638 2.638 0 00.099-.202 2.374 2.374 0 00.157-.526q.045-.245.052-.524a4.195 4.195 0 00.001-.105q0-.896-.37-1.466a1.84 1.84 0 00-.327-.379q-.629-.554-1.689-.609a4.615 4.615 0 00-.239-.006 14.952 14.952 0 00-.172.001q-.21.002-.364.011a4.65 4.65 0 00-.049.003q-.225.015-.435.06zM31.575 6.87h3.3q.015-.135.023-.262a4.267 4.267 0 00.007-.218 3.885 3.885 0 000-.03q0-.693-.187-1.182a1.963 1.963 0 00-.173-.348 1.173 1.173 0 00-.852-.55 1.779 1.779 0 00-.273-.02 2.016 2.016 0 00-.54.068 1.429 1.429 0 00-.765.51 1.798 1.798 0 00-.243.439q-.235.587-.297 1.593zM44.138.944a1.01 1.01 0 00-.038.286 1.098 1.098 0 00.012.163.763.763 0 00.25.475q.263.232.698.232.17 0 .312-.035a.857.857 0 00.378-.197.749.749 0 00.221-.364 1.035 1.035 0 00.034-.274 1.132 1.132 0 00-.012-.169.796.796 0 00-.243-.476.855.855 0 00-.401-.209 1.275 1.275 0 00-.289-.031q-.435 0-.697.24a.773.773 0 00-.225.359z" vector-effect="non-scaling-stroke" stroke-linecap="round" fill-rule="evenodd" font-size="12" stroke="#000" stroke-width=".25mm" fill="none"/></svg>

<svg width="53.265" height="11.46" viewBox="0 0 53.265 11.46"><title>PT Serif</title><g id="svgGroup" stroke-linecap="round" fill-rule="evenodd" font-size="9pt" stroke="#000" stroke-width="0.25mm" fill="none" style="stroke:#000;stroke-width:0.25mm;fill:none"><path d="M 23.07 8.04 L 23.685 10.245 A 1.338 1.338 0 0 0 23.913 10.426 A 1.832 1.832 0 0 0 24.15 10.553 Q 24.435 10.68 25.005 10.68 A 3.203 3.203 0 0 0 25.664 10.614 A 2.828 2.828 0 0 0 25.905 10.553 A 2.274 2.274 0 0 0 26.386 10.346 A 1.954 1.954 0 0 0 26.633 10.178 Q 26.94 9.93 27.12 9.578 A 1.645 1.645 0 0 0 27.286 9.02 A 2.062 2.062 0 0 0 27.3 8.775 A 1.615 1.615 0 0 0 27.222 8.263 A 1.369 1.369 0 0 0 26.932 7.77 Q 26.565 7.365 26.018 7.05 A 14.503 14.503 0 0 0 25.295 6.662 A 17.326 17.326 0 0 0 24.825 6.435 Q 24.18 6.135 23.633 5.723 Q 23.085 5.31 22.718 4.733 A 2.251 2.251 0 0 1 22.425 4.013 Q 22.35 3.679 22.35 3.285 A 3.017 3.017 0 0 1 22.412 2.662 A 2.41 2.41 0 0 1 22.575 2.16 Q 22.8 1.665 23.213 1.32 A 2.826 2.826 0 0 1 23.92 0.891 A 3.41 3.41 0 0 1 24.195 0.788 A 3.7 3.7 0 0 1 24.94 0.629 A 4.752 4.752 0 0 1 25.47 0.6 A 10.24 10.24 0 0 1 26.398 0.64 A 7.91 7.91 0 0 1 27.143 0.743 A 7.795 7.795 0 0 1 27.584 0.838 Q 28.036 0.951 28.335 1.095 Q 28.335 1.3 28.311 1.559 A 7.597 7.597 0 0 1 28.297 1.688 A 20.345 20.345 0 0 1 28.22 2.295 A 22.539 22.539 0 0 1 28.207 2.385 A 22.839 22.839 0 0 1 28.102 3.04 A 20.944 20.944 0 0 1 28.095 3.083 Q 28.043 3.373 27.992 3.602 A 7.738 7.738 0 0 1 27.975 3.675 L 27.585 3.675 L 26.985 1.62 A 1.927 1.927 0 0 0 26.742 1.532 Q 26.62 1.497 26.479 1.47 A 3.907 3.907 0 0 0 26.303 1.44 A 5.795 5.795 0 0 0 25.71 1.386 A 6.837 6.837 0 0 0 25.425 1.38 A 2.225 2.225 0 0 0 24.893 1.44 A 1.564 1.564 0 0 0 24.195 1.808 A 1.4 1.4 0 0 0 23.771 2.576 A 2.087 2.087 0 0 0 23.73 3 A 1.701 1.701 0 0 0 23.809 3.53 A 1.436 1.436 0 0 0 24.097 4.035 Q 24.465 4.455 25.02 4.785 A 15.037 15.037 0 0 0 25.899 5.267 A 17.257 17.257 0 0 0 26.213 5.423 Q 26.85 5.73 27.405 6.135 Q 27.96 6.54 28.328 7.095 A 2.143 2.143 0 0 1 28.633 7.844 Q 28.695 8.137 28.695 8.475 A 3.191 3.191 0 0 1 28.603 9.253 A 2.746 2.746 0 0 1 28.447 9.705 Q 28.2 10.26 27.735 10.65 Q 27.27 11.04 26.595 11.25 A 4.532 4.532 0 0 1 25.791 11.418 A 6.06 6.06 0 0 1 25.065 11.46 A 6.815 6.815 0 0 1 24.169 11.404 A 5.124 5.124 0 0 1 23.37 11.235 A 6.518 6.518 0 0 1 23.022 11.121 Q 22.541 10.946 22.305 10.755 Q 22.32 10.5 22.358 10.14 A 22.677 22.677 0 0 1 22.435 9.493 A 24.963 24.963 0 0 1 22.448 9.398 A 26.208 26.208 0 0 1 22.556 8.678 A 24.336 24.336 0 0 1 22.56 8.655 Q 22.606 8.379 22.652 8.165 A 6.526 6.526 0 0 1 22.68 8.04 L 23.07 8.04 Z M 15.255 10.845 L 15.255 11.28 L 11.04 11.28 L 11.04 10.845 Q 11.37 10.725 11.708 10.635 A 6.44 6.44 0 0 1 12.15 10.534 A 7.732 7.732 0 0 1 12.435 10.485 L 12.435 1.56 L 10.14 1.56 L 9.345 3.705 L 8.97 3.705 Q 8.928 3.425 8.899 3.073 A 13.49 13.49 0 0 1 8.895 3.023 Q 8.865 2.64 8.843 2.243 Q 8.82 1.845 8.805 1.463 A 21.535 21.535 0 0 1 8.795 1.144 Q 8.791 0.997 8.79 0.866 A 12.719 12.719 0 0 1 8.79 0.78 L 17.505 0.78 A 13.774 13.774 0 0 1 17.505 0.785 Q 17.505 1.078 17.49 1.443 A 24.422 24.422 0 0 1 17.49 1.455 Q 17.475 1.83 17.453 2.228 Q 17.43 2.625 17.408 3.008 Q 17.385 3.39 17.34 3.705 L 16.95 3.705 L 16.17 1.56 L 13.875 1.56 L 13.875 10.485 Q 14.265 10.56 14.603 10.635 Q 14.94 10.71 15.255 10.845 Z M 52.935 1.89 L 52.56 1.89 L 51.9 0.6 A 3.557 3.557 0 0 0 51.592 0.613 Q 51.429 0.627 51.289 0.657 A 1.846 1.846 0 0 0 51.158 0.69 Q 50.85 0.78 50.648 1.035 Q 50.499 1.222 50.407 1.53 A 2.754 2.754 0 0 0 50.347 1.77 Q 50.282 2.093 50.26 2.55 A 10.261 10.261 0 0 0 50.25 3.03 L 50.25 3.78 L 51.975 3.78 L 51.975 4.53 L 50.25 4.53 L 50.25 10.545 A 5.685 5.685 0 0 1 51.266 10.754 A 4.951 4.951 0 0 1 51.69 10.905 L 51.69 11.28 L 47.91 11.28 L 47.91 10.905 Q 48.375 10.635 48.9 10.545 L 48.9 4.53 L 47.76 4.53 L 47.76 4.14 Q 48.285 3.81 48.9 3.645 L 48.9 3.12 A 6.356 6.356 0 0 1 48.929 2.493 Q 48.96 2.184 49.023 1.921 A 2.984 2.984 0 0 1 49.125 1.583 A 2.751 2.751 0 0 1 49.356 1.1 A 2.037 2.037 0 0 1 49.755 0.623 Q 50.16 0.27 50.708 0.135 A 4.658 4.658 0 0 1 51.499 0.013 A 5.537 5.537 0 0 1 51.885 0 Q 51.988 0 52.118 0.009 A 5.313 5.313 0 0 1 52.2 0.015 A 11.526 11.526 0 0 1 52.478 0.042 A 13.044 13.044 0 0 1 52.575 0.053 A 4.25 4.25 0 0 1 52.905 0.103 A 3.856 3.856 0 0 1 52.95 0.113 A 3.503 3.503 0 0 1 53.099 0.147 Q 53.189 0.17 53.265 0.195 A 10.065 10.065 0 0 1 53.194 0.787 A 8.246 8.246 0 0 1 53.137 1.118 Q 53.055 1.545 52.935 1.89 Z M 2.67 7.17 L 2.67 10.485 A 5.235 5.235 0 0 1 3.252 10.582 A 4.594 4.594 0 0 1 3.435 10.628 A 7.452 7.452 0 0 1 3.929 10.779 A 6.402 6.402 0 0 1 4.11 10.845 L 4.11 11.28 L 0 11.28 L 0 10.845 Q 0.3 10.695 0.615 10.62 A 17.379 17.379 0 0 1 1.211 10.489 A 15.789 15.789 0 0 1 1.23 10.485 L 1.23 1.59 A 4.918 4.918 0 0 1 0.777 1.49 A 4.208 4.208 0 0 1 0.585 1.433 Q 0.285 1.335 0 1.215 L 0 0.78 L 1.35 0.78 A 13.87 13.87 0 0 0 2.058 0.761 A 17.746 17.746 0 0 0 2.655 0.72 A 16.503 16.503 0 0 1 3.679 0.664 A 14.359 14.359 0 0 1 4.005 0.66 Q 4.74 0.66 5.445 0.818 A 3.719 3.719 0 0 1 6.34 1.137 A 3.32 3.32 0 0 1 6.697 1.35 A 2.785 2.785 0 0 1 7.539 2.27 A 3.264 3.264 0 0 1 7.582 2.348 A 2.629 2.629 0 0 1 7.834 3.041 Q 7.903 3.352 7.916 3.713 A 4.872 4.872 0 0 1 7.92 3.9 Q 7.92 4.785 7.575 5.415 Q 7.23 6.045 6.653 6.45 A 3.914 3.914 0 0 1 5.521 6.992 A 4.5 4.5 0 0 1 5.34 7.043 Q 4.605 7.23 3.825 7.23 L 3.593 7.23 A 7.54 7.54 0 0 1 3.387 7.227 A 9.21 9.21 0 0 1 3.255 7.223 A 7.288 7.288 0 0 1 2.993 7.207 A 6.422 6.422 0 0 1 2.91 7.2 Q 2.751 7.186 2.676 7.171 A 0.709 0.709 0 0 1 2.67 7.17 Z M 35.955 9.99 L 36.165 10.23 A 1.33 1.33 0 0 1 35.981 10.515 A 1.787 1.787 0 0 1 35.79 10.71 A 2.647 2.647 0 0 1 35.326 11.036 A 3.029 3.029 0 0 1 35.205 11.1 Q 34.875 11.265 34.485 11.363 Q 34.095 11.46 33.69 11.46 A 4.802 4.802 0 0 1 32.906 11.399 A 3.566 3.566 0 0 1 32.13 11.183 A 3.016 3.016 0 0 1 31.228 10.617 A 2.841 2.841 0 0 1 31.005 10.388 A 3.381 3.381 0 0 1 30.435 9.455 A 4.036 4.036 0 0 1 30.322 9.15 Q 30.09 8.43 30.09 7.53 A 6.668 6.668 0 0 1 30.176 6.419 Q 30.367 5.296 30.975 4.605 A 2.881 2.881 0 0 1 32.605 3.684 A 4.327 4.327 0 0 1 33.48 3.6 Q 34.005 3.6 34.515 3.743 Q 35.025 3.885 35.423 4.215 A 2.22 2.22 0 0 1 35.88 4.742 A 2.854 2.854 0 0 1 36.067 5.093 Q 36.277 5.556 36.309 6.207 A 4.919 4.919 0 0 1 36.315 6.45 Q 36.315 6.705 36.293 6.968 Q 36.27 7.23 36.21 7.53 L 31.53 7.53 A 4.457 4.457 0 0 0 31.603 8.348 A 3.856 3.856 0 0 0 31.688 8.708 A 2.968 2.968 0 0 0 31.946 9.336 A 2.555 2.555 0 0 0 32.16 9.66 Q 32.475 10.065 32.955 10.298 A 2.272 2.272 0 0 0 33.579 10.491 A 3.076 3.076 0 0 0 34.08 10.53 A 3.928 3.928 0 0 0 35.044 10.407 A 4.41 4.41 0 0 0 35.145 10.38 Q 35.499 10.282 35.736 10.145 A 1.314 1.314 0 0 0 35.955 9.99 Z M 42.675 4.905 L 40.68 4.905 A 0.803 0.803 0 0 0 40.581 4.97 Q 40.478 5.049 40.35 5.183 A 3.807 3.807 0 0 0 40.267 5.273 A 1.65 1.65 0 0 0 40.093 5.512 Q 40.016 5.637 39.945 5.793 A 3.969 3.969 0 0 0 39.825 6.09 L 39.825 10.545 Q 40.125 10.575 40.425 10.658 A 2.671 2.671 0 0 1 40.875 10.828 A 3.108 3.108 0 0 1 41.025 10.905 L 41.025 11.28 L 37.485 11.28 L 37.485 10.905 A 3.213 3.213 0 0 1 37.746 10.775 A 2.357 2.357 0 0 1 37.995 10.68 Q 38.235 10.605 38.475 10.545 L 38.475 4.65 L 37.485 4.53 L 37.485 4.14 Q 37.965 3.93 38.475 3.803 Q 38.985 3.675 39.45 3.6 L 39.825 3.6 L 39.825 5.19 L 39.885 5.19 A 2.398 2.398 0 0 1 40.072 4.853 A 3.095 3.095 0 0 1 40.268 4.59 Q 40.515 4.29 40.838 4.05 Q 41.16 3.81 41.543 3.683 A 1.815 1.815 0 0 1 42.12 3.588 A 1.898 1.898 0 0 1 42.33 3.6 Q 42.435 3.795 42.518 4.028 A 9.079 9.079 0 0 1 42.637 4.389 A 10.15 10.15 0 0 1 42.675 4.515 L 42.675 4.905 Z M 46.725 10.905 L 46.725 11.28 L 43.395 11.28 L 43.395 10.905 Q 43.62 10.785 43.86 10.703 A 6.808 6.808 0 0 1 44.161 10.607 A 8.511 8.511 0 0 1 44.385 10.545 L 44.385 4.65 L 43.395 4.53 L 43.395 4.14 A 7.084 7.084 0 0 1 44.029 3.914 A 8.411 8.411 0 0 1 44.34 3.825 Q 44.85 3.69 45.36 3.6 L 45.735 3.6 L 45.735 10.545 Q 46.035 10.62 46.275 10.703 Q 46.515 10.785 46.725 10.905 Z M 2.67 1.515 L 2.67 6.375 A 0.386 0.386 0 0 0 2.723 6.392 Q 2.78 6.405 2.861 6.411 A 1.462 1.462 0 0 0 2.888 6.413 A 6.811 6.811 0 0 1 3.1 6.427 A 7.943 7.943 0 0 1 3.188 6.435 A 3.244 3.244 0 0 0 3.495 6.45 L 3.735 6.45 Q 4.26 6.45 4.725 6.308 Q 5.19 6.165 5.543 5.85 A 2.186 2.186 0 0 0 6.006 5.257 A 2.638 2.638 0 0 0 6.105 5.055 A 2.374 2.374 0 0 0 6.262 4.529 Q 6.307 4.284 6.314 4.005 A 4.195 4.195 0 0 0 6.315 3.9 Q 6.315 3.004 5.945 2.434 A 1.84 1.84 0 0 0 5.618 2.055 Q 4.989 1.501 3.929 1.446 A 4.615 4.615 0 0 0 3.69 1.44 A 14.952 14.952 0 0 0 3.518 1.441 Q 3.308 1.443 3.154 1.452 A 4.65 4.65 0 0 0 3.105 1.455 Q 2.88 1.47 2.67 1.515 Z M 31.575 6.87 L 34.875 6.87 Q 34.89 6.735 34.898 6.608 A 4.267 4.267 0 0 0 34.905 6.39 A 3.885 3.885 0 0 0 34.905 6.36 Q 34.905 5.667 34.718 5.178 A 1.963 1.963 0 0 0 34.545 4.83 A 1.173 1.173 0 0 0 33.693 4.28 A 1.779 1.779 0 0 0 33.42 4.26 A 2.016 2.016 0 0 0 32.88 4.328 A 1.429 1.429 0 0 0 32.115 4.838 A 1.798 1.798 0 0 0 31.872 5.277 Q 31.637 5.864 31.575 6.87 Z M 44.138 0.944 A 1.01 1.01 0 0 0 44.1 1.23 A 1.098 1.098 0 0 0 44.112 1.393 A 0.763 0.763 0 0 0 44.362 1.868 Q 44.625 2.1 45.06 2.1 Q 45.23 2.1 45.372 2.065 A 0.857 0.857 0 0 0 45.75 1.868 A 0.749 0.749 0 0 0 45.971 1.504 A 1.035 1.035 0 0 0 46.005 1.23 A 1.132 1.132 0 0 0 45.993 1.061 A 0.796 0.796 0 0 0 45.75 0.585 A 0.855 0.855 0 0 0 45.349 0.376 A 1.275 1.275 0 0 0 45.06 0.345 Q 44.625 0.345 44.363 0.585 A 0.773 0.773 0 0 0 44.138 0.944 Z" vector-effect="non-scaling-stroke"/></g></svg>
